X:1
T:Title
%%score ( 1 2 ) { ( 3 5 ) | 4 }
L:1/8
Q:1/4=117
M:3/4
K:Eb
V:1 treble nm="Grand Piano, Staff 1"
V:2 treble 
V:3 bass nm="Choir Pad, Cloisters, 11.11.11.5"
V:5 bass 
V:4 bass 
V:1
 [EG]2 [EG]2 [EG]2 | [EG]4 [EG]2 | [EB][EA] [EG]2 [DF]2 | [DF]2 [EG]4 | [FG]2 [FG]2 [FG]2 | %5
w: By~Joseph~Barnby~(1838\-1896) * *|||||
 [EG]4 [Ge]2 | [_Gd]3 [Gc] [GB][G=A] | [_G=A]2 [=GB]4 | [GB]2 [GB]2 [GB]2 | c4 z2 | %10
w: |||||
 [Fd]3 [Fd] [Fc][Fd] | [Fd]2 [Ee]4 | [Ee]2 [Ec]2 [EA]2 | F6 | E6- | E2 z2 z2 |] %16
w: ||||||
V:2
 x6 | x6 | x6 | x6 | x6 | x6 | x6 | x6 | x6 | G2 F2 [Fc]2 | x6 | x6 | x6 | E2 D4 | x6 | x6 |] %16
V:3
 B,2 B,2 B,2 | C4 C2 | _DC B,2 A,2 | A,2 G,4 | =B,2 B,2 B,2 | C4 C2 | C2 z D,[K:treble] DC | %7
 C2 B,4 | _D2 D2 D2 | C4 C2 | z2[K:bass] =B,2 z2 | =B,2 C4 | C2 A,2 C2 | B,4 A,2 | G,6- | %15
 G,2 z2 z2 |] %16
V:4
 E,2 E,2 E,2 | C,4 C,2 | G,,A,, B,,2 B,,2 | E,2 E,4 | D,2 D,2 D,2 | C,4 C,2 | .D,4 D,D, | G,2 G,4 | %8
 E,2 E,2 E,2 | A,,4 A,2 | .G,4 G,G, | C,2 C,4 | A,,2 A,,2 A,,2 | B,,6 | E,6- | E,2 z2 z2 |] %16
V:5
 x6 | x6 | x6 | x6 | x6 | x6 | z2 =A,2[K:treble] z2 | x6 | x6 | x6 | C2[K:bass] z G, =A,=B, | x6 | %12
 x6 | x6 | x6 | x6 |] %16

